X: 213
T:Saffron and Blue
R:Reel
C:Manus McGuire
Z:alf.warnock@rogers.com
M:4/4
L:1/8
K:G
DF|:GBdg bagf|gdBe d/e/d BG|FGAB cBce|agfe fdcA|
GBdg bagf|gdBe d/e/d BG|FGAB cAFG|[1 AGGF G2 (3DEF:|[2 AGGF G2z|]
B|AF (3FFF Adcd| BGBd g2ag|fgag fdcA|d/e/dcd AdFd|
AF (3FFF Adcd|BGBd g2ag|fgag fdcA|FGAc BGGB|
AD (3DDD CDA,D| BGBd g2ag|fgag fdcA|d/e/dcd AdFd|
AF (3FFF Adcd|BGBd g2ag|fgag fdcA| "*" FGAc BGG|]
"* last time" FDCA, G,4|]

